Simply-Black-Circles/scalable/apps/ktorrent.svg

<svg xmlns="http://www.w3.org/2000/svg" width="48" height="48" viewBox="0 0 12.7 12.7"><path d="M6.35.083A6.267 6.267 0 0 0 .084 6.35a6.267 6.267 0 0 0 6.268 6.267 6.267 6.267 0 0 0 6.266-6.267A6.267 6.267 0 0 0 6.351.083zm-.017.932a5.388 5.388 0 0 1 5.388 5.39 5.388 5.388 0 0 1-5.388 5.387 5.388 5.388 0 0 1-5.39-5.388 5.388 5.388 0 0 1 5.39-5.389zM4.698 2.183v4.726c-.16.057-.322.238-.458.376-.205.21-.388.224-.534.099-.146-.125-.018-.466-.187-.808-.168-.342-.503-.172-.55.06-.047.23.423.386.332.514-.092.129-.456.1-.563-.142-.107-.242-.341-.164-.346.034-.005.198.181.06.326.205L6.46 10.99l3.741-3.742c.44-.44-.063-.251-.167-.152-.104.099-.424.179-.462.07-.038-.108.359-.29.472-.412.113-.123.224-.472.041-.6-.183-.127-.442.103-.555.273-.113.17-.015.602-.166.734-.15.132-.234.052-.262-.061-.029-.113.326-.272.177-.554-.149-.281-.423-.154-.55-.022-.128.132.076.336.123.543.047.208-.435.202-.624.127l-.008-.005V2.183H4.698zm-.89 1.672a.149.149 0 0 0-.042.012c-.112.049-.15.208-.003.542.147.333.355.565.467.516.111-.05.083-.36-.064-.693-.128-.293-.254-.39-.357-.377zm5.055.377a.22.22 0 1 0 0 .44.22.22 0 0 0 0-.44zm1.326.72a.33.33 0 1 0 0 .661.33.33 0 0 0 0-.66zm-.99.045c-.117-.028-.165.192-.193.399-.027.206-.13.42-.041.46.124.056.187-.283.327-.41s.024-.422-.093-.45zm-6.37.048a.33.33 0 1 0 0 .66.33.33 0 0 0 0-.66zm1.273.382c-.087-.007-.206.08-.098.203.145.164.22.456.092.514-.13.059-.12-.217-.131-.365-.012-.147-.37-.235-.502-.053-.132.183.001.379.132.418.13.04.15.19.229.346.077.155.456.116.549 0a.4.4 0 0 0-.03-.534c-.18-.2-.126-.385-.174-.488-.012-.025-.038-.038-.067-.04zm-2.044.72a.22.22 0 1 0 0 .44.22.22 0 0 0 0-.44zm8.584.219a.22.22 0 1 0 0 .44.22.22 0 0 0 0-.44z" fill="#1a1a1a"/></svg>

<?xml version="1.0" encoding="UTF-8" standalone="no"?>
<svg
   xmlns:dc="http://purl.org/dc/elements/1.1/"
   xmlns:cc="http://creativecommons.org/ns#"
   xmlns:rdf="http://www.w3.org/1999/02/22-rdf-syntax-ns#"
   xmlns:svg="http://www.w3.org/2000/svg"
   xmlns="http://www.w3.org/2000/svg"
   xmlns:sodipodi="http://sodipodi.sourceforge.net/DTD/sodipodi-0.dtd"
   xmlns:inkscape="http://www.inkscape.org/namespaces/inkscape"
   width="48"
   height="48"
   viewBox="0 0 12.7 12.7"
   version="1.1"
   id="svg4"
   sodipodi:docname="ktorrent.svg"
   inkscape:version="0.92.4 (5da689c313, 2019-01-14)">
  <metadata
     id="metadata10">
    <rdf:RDF>
      <cc:Work
         rdf:about="">
        <dc:format>image/svg+xml</dc:format>
        <dc:type
           rdf:resource="http://purl.org/dc/dcmitype/StillImage" />
        <dc:title></dc:title>
      </cc:Work>
    </rdf:RDF>
  </metadata>
  <defs
     id="defs8" />
  <sodipodi:namedview
     pagecolor="#ffffff"
     bordercolor="#666666"
     borderopacity="1"
     objecttolerance="10"
     gridtolerance="10"
     guidetolerance="10"
     inkscape:pageopacity="0"
     inkscape:pageshadow="2"
     inkscape:window-width="1087"
     inkscape:window-height="480"
     id="namedview6"
     showgrid="false"
     inkscape:zoom="4.9166667"
     inkscape:cx="2.1355932"
     inkscape:cy="24"
     inkscape:window-x="0"
     inkscape:window-y="25"
     inkscape:window-maximized="0"
     inkscape:current-layer="svg4" />
  <path
     d="M 6.35,0.083 A 6.267,6.267 0 0 0 0.084,6.35 6.267,6.267 0 0 0 6.352,12.617 6.267,6.267 0 0 0 12.618,6.35 6.267,6.267 0 0 0 6.351,0.083 Z M 6.333,1.015 a 5.388,5.388 0 0 1 5.388,5.39 5.388,5.388 0 0 1 -5.388,5.387 5.388,5.388 0 0 1 -5.39,-5.388 5.388,5.388 0 0 1 5.39,-5.389 z M 4.698,2.183 V 6.909 C 4.538,6.966 4.376,7.147 4.24,7.285 4.035,7.495 3.852,7.509 3.706,7.384 3.56,7.259 3.688,6.918 3.519,6.576 3.351,6.234 3.016,6.404 2.969,6.636 2.922,6.866 3.392,7.022 3.301,7.15 3.209,7.279 2.845,7.25 2.738,7.008 2.631,6.766 2.397,6.844 2.392,7.042 2.387,7.24 2.573,7.102 2.718,7.247 L 6.46,10.99 10.201,7.248 C 10.641,6.808 10.138,6.997 10.034,7.096 9.93,7.195 9.61,7.275 9.572,7.166 9.534,7.058 9.931,6.876 10.044,6.754 10.157,6.631 10.268,6.282 10.085,6.154 9.902,6.027 9.643,6.257 9.53,6.427 9.417,6.597 9.515,7.029 9.364,7.161 9.214,7.293 9.13,7.213 9.102,7.1 9.073,6.987 9.428,6.828 9.279,6.546 9.13,6.265 8.856,6.392 8.729,6.524 8.601,6.656 8.805,6.86 8.852,7.067 8.899,7.275 8.417,7.269 8.228,7.194 L 8.22,7.189 V 2.183 Z M 3.808,3.855 A 0.149,0.149 0 0 0 3.766,3.867 C 3.654,3.916 3.616,4.075 3.763,4.409 3.91,4.742 4.118,4.974 4.23,4.925 4.341,4.875 4.313,4.565 4.166,4.232 4.038,3.939 3.912,3.842 3.809,3.855 Z m 5.055,0.377 a 0.22,0.22 0 1 0 0,0.44 0.22,0.22 0 0 0 0,-0.44 z m 1.326,0.72 a 0.3305,0.3305 0 1 0 0,0.661 0.33,0.33 0 0 0 0,-0.66 z M 9.199,4.997 C 9.082,4.969 9.034,5.189 9.006,5.396 8.979,5.602 8.876,5.816 8.965,5.856 9.089,5.912 9.152,5.573 9.292,5.446 9.432,5.319 9.316,5.024 9.199,4.996 Z m -6.37,0.048 a 0.33,0.33 0 1 0 0,0.66 0.33,0.33 0 0 0 0,-0.66 z M 4.102,5.427 C 4.015,5.42 3.896,5.507 4.004,5.63 4.149,5.794 4.224,6.086 4.096,6.144 3.966,6.203 3.976,5.927 3.965,5.779 3.953,5.632 3.595,5.544 3.463,5.726 3.331,5.909 3.464,6.105 3.595,6.144 c 0.13,0.04 0.15,0.19 0.229,0.346 0.077,0.155 0.456,0.116 0.549,0 A 0.4,0.4 0 0 0 4.343,5.956 C 4.163,5.756 4.217,5.571 4.169,5.468 4.157,5.443 4.131,5.43 4.102,5.428 Z m -2.044,0.72 a 0.22,0.22 0 1 0 0,0.44 0.22,0.22 0 0 0 0,-0.44 z m 8.584,0.219 a 0.22,0.22 0 1 0 0,0.44 0.22,0.22 0 0 0 0,-0.44 z"
     id="path2"
     inkscape:connector-curvature="0"
     style="fill:#1a1a1a" />
</svg>
